X: 1
T: Radara meen Chusogh
B: A COLECTION of the most Celebrated Irish Tunes12b
M: C
L: 1/8
K: Am
|:\
E2 A4 GA | c2 d4 (cd) | e2a2 a>b a>g | e>g e>d c4 |
d2(de) dcde | a2(ab) g3(e/d/) | cded Tc3(A/G/) | E2A2 A4 :|
|:\
a>g e>d Tc3(d/e/) | g2(ga) Ta3(g/e/) | a>g e>d Tc3(d/e/) | g2d2 Td3(e/g/) |
a>g e>a Tg3(e/d/) | edcA Tc3(d/e/) | g>e d>e Tc3(A/G/) | E2(AB) A4 :|
